!!!OTL: Shuiben yangtian fanlanghua
!!!ARE: Asia, China,ÿAnhui Fengtai
!! III, 350, 1)
!!!SCT: C2047
!!!YEM: Copyright 1995, estate of Helmut Schaffrath.
**kern
*ICvox
*Ivox
!! Mixed meters:  2/4; 3/4
*M3/4
*k[f#c#g#]
*A:
{8aa
8bb
8aa
8bb
=1
8ccc#
8bb
4ccc#
=2
8.ccc#
16bb
2aa}
=3
*M2/4
{8aa
8bb
4ccc#
=4
8eee
4ccc#
8bb
=5
2aa}
=6
{8r
8ccc#
4ccc#
=7
4bb
4bb
=8
4bb
8ff#
8aa
=9
8.bb
16ccc#
4aa}
=10
{1ggxx#
=11
1ggxxxx#
=12
4ggx#
4r}
=13
{8aa
8bb
8aa
8bb
=14
8ccc#
8bb
4ccc#
=15
8bb
8aa
4bb
=16
8ccc#
8eee
8ccc#
8bb
=17
2aa}
=18
{4ff#
4ccc#
=19
8bb
16ccc#
16bb
4aa}
==
!!!AGN: Xiaodiao, Huagu diao. Cheshui
!!!AMT: irregular
!!!AIN: vox
!!!EED: Helmut Schaffrath
!!!EEV: 1.0
*-
